X:1
T:Title
%%score { ( 1 3 ) | 2 }
L:1/8
M:3/4
K:G
V:1 treble nm="Grand Piano"
V:3 treble 
V:2 bass 
V:1
 z2 z2[Q:1/4=100] [DB]>[CA] | [B,G]2 [B,G]2 [CE]>[CG] | [B,D]4 [DB]>[CA] | [B,G]2 [B,G]2 B>B | %4
[M:2/4] A4 |[M:1/4] B>c |[M:3/4] d2 d2 B>e | d2 d2 B>B | A6- |[M:2/4] A4 |[M:1/4] [DGB]>[CDA] | %11
[M:3/4] [B,DG]2 [B,G]2 [CE]>[CG] | [B,D]4 [DB]>[CA] | [B,G]2 [B,G]2 [B,G]>[DB] |[M:2/4] d4 | %15
[M:1/4] d>d |[M:3/4] [Ge]2 [Ge]2 [EGc]>[Ge] | d2 d2 B>d | [Fd]3 [Ac] [GB]>[CDA] |[M:2/4] [B,DG]4 | %20
[M:1/4] [B,DG]>[B,=FG] |[M:3/4] [EG]3 [EG] [Ec]>[Ec] | [Ec]4 [EG]>[EG] | G3 G B>B |[M:2/4] B4 | %25
[M:1/4] d>d |[M:3/4] d3 B e>d | d2 B2 B>d | [Fd]3 [Ac] [GB]>A |[M:2/4] G4 |] %30
V:2
 z2 z2 [G,,G,]>[G,,G,] | [G,,G,]2 [G,,G,]2 [G,,G,]>[G,,E,] | [G,,G,]4 [G,,G,]>[G,,G,] | %3
 [G,,G,]2 [G,,G,]2 [G,D]>[G,D] |[M:2/4] [D,F,D]4 |[M:1/4][K:treble] [G,D]>[G,A,D] | %6
[M:3/4] [G,B,G]2 [G,B,G]2 [G,DG]>[G,CG] | [G,B,G]2 [G,B,G]2 [G,DG]>[G,DG] | D,4 A,,>A,, | %9
[M:2/4] D,4 |[M:1/4] G,,>G,, |[M:3/4] G,,2 [G,,G,]2 [G,,G,]>[G,,E,] | [G,,G,]4 [G,,G,]>[G,,G,] | %13
 [G,,G,]2 [G,,G,]2 [G,,G,]>[G,,G,] |[M:2/4][K:treble] [G,B,G]4 |[M:1/4] [G,B,G]>[G,B,G] | %16
[M:3/4][K:bass] [C,C]2 [C,C]2 C,>[C,C] | [G,B,G]2 [G,B,G]2 [G,DG]>[G,B,G] | %18
 [D,A,]3 [D,D] [D,D]>D, |[M:2/4] G,,4 |[M:1/4] G,>G, |[M:3/4] [C,C]3 [C,C] [C,G,]>[C,G,] | %22
 [C,G,]4 [C,C]>[C,C] | [G,B,D]3 [G,B,D] [G,DG]>[G,DG] |[M:2/4] [G,DG]4 |[M:1/4] [G,B,G]>[G,B,G] | %26
[M:3/4] [G,B,G]3 [G,DG] [G,CG]>[G,B,G] | [G,B,G]2 [G,DG]2 [G,DG]>[G,B,G] | %28
 [D,A,]3 [D,D] [D,D]>[D,CD] |[M:2/4] [G,B,D]4 |] %30
V:3
 x6 | x6 | x6 | x6 |[M:2/4] x4 |[M:1/4] x2 |[M:3/4] x6 | x6 | [DF]4 [^CG]>[CG] |[M:2/4] [DF]4 | %10
[M:1/4] x2 |[M:3/4] x6 | x6 | x6 |[M:2/4] x4 |[M:1/4] x2 |[M:3/4] x6 | x6 | x6 |[M:2/4] x4 | %20
[M:1/4] x2 |[M:3/4] x6 | x6 | x6 |[M:2/4] x4 |[M:1/4] x2 |[M:3/4] x6 | x6 | x6 |[M:2/4] x4 |] %30

